icons/eg.svg

<?xml version="1.0" ?>
<svg xmlns="http://www.w3.org/2000/svg" xmlns:ev="http://www.w3.org/2001/xml-events" xmlns:xlink="http://www.w3.org/1999/xlink" baseProfile="full" height="600px" version="1.1" viewBox="-980.2203851238983 -1032.1974099035394 12191.440770247797 12299.165067603491" width="595px">
	<defs/>
	<path d="M 1211.0,10204.0 C 1172.0,10174.0 1161.0,10170.0 1106.0,10170.0 C 1063.0,10170.0 1009.0,10158.0 923.0,10131.0 L 801.0,10092.0 L 721.0,10116.0 C 647.0,10139.0 640.0,10144.0 615.0,10186.0 L 589.0,10230.0 L 545.0,10199.0 C 521.0,10182.0 499.0,10158.0 496.0,10145.0 C 487.0,10109.0 402.0,10031.0 364.0,10024.0 C 345.0,10021.0 327.0,10014.0 324.0,10008.0 C 321.0,10003.0 318.0,9930.0 318.0,9845.0 L 317.0,9691.0 L 369.0,9571.0 C 397.0,9504.0 420.0,9437.0 420.0,9418.0 C 419.0,9400.0 409.0,9335.0 396.0,9275.0 C 372.0,9155.0 343.0,9102.0 248.0,8995.0 C 213.0,8956.0 196.0,8924.0 171.0,8848.0 L 139.0,8751.0 L 195.0,8609.0 C 226.0,8531.0 249.0,8462.0 246.0,8456.0 C 244.0,8450.0 233.0,8421.0 221.0,8392.0 L 200.0,8340.0 L 250.0,8285.0 C 304.0,8225.0 303.0,8231.0 275.0,8137.0 C 263.0,8097.0 265.0,8088.0 312.0,7950.0 L 362.0,7805.0 L 201.0,4115.0 C 112.0,2085.0 40.0,416.0 40.0,405.0 C 40.0,385.0 53.0,384.0 853.0,352.0 C 2300.0,294.0 3614.0,262.0 4860.0,254.0 L 5975.0,248.0 L 6015.0,319.0 C 6093.0,460.0 6109.0,480.0 6141.0,480.0 C 6186.0,480.0 6204.0,444.0 6196.0,367.0 C 6192.0,333.0 6186.0,295.0 6183.0,283.0 L 6178.0,260.0 L 6796.0,260.0 C 7175.0,260.0 7481.0,265.0 7586.0,272.0 L 7757.0,284.0 L 7792.0,254.0 C 7812.0,238.0 7879.0,179.0 7942.0,123.0 L 8057.0,21.0 L 8251.0,9.0 L 8446.0,-3.0 L 8520.0,36.0 L 8594.0,75.0 L 8656.0,280.0 L 8718.0,485.0 L 8981.0,552.0 C 9125.0,589.0 9247.0,623.0 9251.0,627.0 C 9257.0,634.0 9440.0,1181.0 9440.0,1193.0 C 9440.0,1196.0 9500.0,1180.0 9573.0,1159.0 L 9705.0,1121.0 L 9888.0,1303.0 C 10059.0,1474.0 10070.0,1487.0 10070.0,1522.0 C 10070.0,1547.0 10059.0,1577.0 10037.0,1612.0 C 10018.0,1641.0 10000.0,1684.0 9997.0,1708.0 C 9994.0,1731.0 9978.0,1772.0 9960.0,1799.0 L 9929.0,1848.0 L 9945.0,1963.0 C 9959.0,2068.0 9959.0,2084.0 9945.0,2138.0 C 9917.0,2249.0 9931.0,2350.0 9976.0,2350.0 C 9984.0,2350.0 10012.0,2339.0 10038.0,2325.0 C 10078.0,2304.0 10094.0,2301.0 10138.0,2307.0 L 10191.0,2313.0 L 10159.0,2346.0 C 10135.0,2371.0 10117.0,2380.0 10093.0,2380.0 C 10057.0,2380.0 10030.0,2401.0 10005.0,2449.0 C 9997.0,2466.0 9985.0,2480.0 9980.0,2480.0 C 9962.0,2480.0 9897.0,2545.0 9844.0,2617.0 C 9815.0,2657.0 9778.0,2696.0 9763.0,2704.0 C 9747.0,2712.0 9698.0,2756.0 9652.0,2803.0 C 9573.0,2882.0 9569.0,2888.0 9581.0,2912.0 C 9591.0,2935.0 9589.0,2943.0 9571.0,2969.0 C 9559.0,2985.0 9538.0,3025.0 9523.0,3057.0 C 9509.0,3089.0 9482.0,3133.0 9464.0,3156.0 C 9442.0,3183.0 9429.0,3212.0 9425.0,3246.0 C 9421.0,3273.0 9409.0,3307.0 9399.0,3322.0 C 9388.0,3336.0 9377.0,3363.0 9373.0,3382.0 C 9363.0,3434.0 9264.0,3626.0 9211.0,3693.0 C 9185.0,3727.0 9156.0,3777.0 9146.0,3803.0 C 9136.0,3829.0 9113.0,3873.0 9095.0,3900.0 C 9077.0,3926.0 9059.0,3965.0 9056.0,3987.0 C 9045.0,4041.0 9010.0,4098.0 8941.0,4169.0 C 8890.0,4220.0 8880.0,4236.0 8880.0,4265.0 C 8880.0,4293.0 8872.0,4305.0 8836.0,4334.0 C 8805.0,4360.0 8787.0,4386.0 8771.0,4428.0 C 8759.0,4459.0 8734.0,4510.0 8715.0,4541.0 C 8696.0,4572.0 8669.0,4630.0 8654.0,4671.0 C 8617.0,4775.0 8547.0,4900.0 8479.0,4985.0 C 8438.0,5036.0 8418.0,5071.0 8410.0,5105.0 C 8404.0,5131.0 8401.0,5155.0 8404.0,5157.0 C 8406.0,5159.0 8423.0,5154.0 8440.0,5145.0 L 8472.0,5128.0 L 8446.0,5163.0 C 8415.0,5204.0 8412.0,5230.0 8440.0,5230.0 C 8471.0,5230.0 8466.0,5276.0 8430.0,5317.0 C 8414.0,5335.0 8400.0,5357.0 8400.0,5365.0 C 8400.0,5373.0 8385.0,5397.0 8366.0,5417.0 C 8346.0,5440.0 8330.0,5471.0 8326.0,5495.0 C 8317.0,5544.0 8257.0,5647.0 8219.0,5678.0 C 8204.0,5690.0 8186.0,5717.0 8179.0,5738.0 C 8156.0,5810.0 8121.0,5868.0 8076.0,5907.0 C 8031.0,5947.0 7995.0,6014.0 8002.0,6047.0 C 8004.0,6060.0 8013.0,6064.0 8035.0,6062.0 L 8065.0,6059.0 L 8043.0,6077.0 C 8030.0,6087.0 8017.0,6110.0 8014.0,6128.0 C 8009.0,6150.0 7998.0,6166.0 7979.0,6176.0 C 7945.0,6193.0 7943.0,6201.0 7969.0,6224.0 C 7983.0,6237.0 7993.0,6238.0 8014.0,6230.0 C 8029.0,6225.0 8045.0,6220.0 8050.0,6220.0 C 8059.0,6220.0 8039.0,6291.0 8012.0,6353.0 C 7995.0,6391.0 7987.0,6397.0 7936.0,6413.0 C 7872.0,6434.0 7783.0,6510.0 7709.0,6608.0 C 7685.0,6639.0 7646.0,6686.0 7623.0,6712.0 C 7599.0,6738.0 7580.0,6764.0 7580.0,6769.0 C 7580.0,6783.0 7450.0,6951.0 7419.0,6977.0 C 7391.0,7001.0 7376.0,7045.0 7365.0,7140.0 C 7358.0,7192.0 7355.0,7197.0 7304.0,7235.0 C 7272.0,7258.0 7243.0,7289.0 7234.0,7309.0 C 7226.0,7328.0 7211.0,7349.0 7201.0,7357.0 C 7171.0,7378.0 7156.0,7435.0 7170.0,7471.0 C 7190.0,7519.0 7177.0,7679.0 7145.0,7771.0 C 7124.0,7832.0 7111.0,7854.0 7079.0,7879.0 C 6981.0,7958.0 6932.0,8167.0 6990.0,8262.0 C 7002.0,8282.0 7006.0,8303.0 7003.0,8329.0 C 6998.0,8362.0 7002.0,8370.0 7030.0,8393.0 C 7067.0,8424.0 7100.0,8429.0 7100.0,8402.0 C 7100.0,8392.0 7114.0,8371.0 7130.0,8355.0 C 7147.0,8339.0 7160.0,8320.0 7160.0,8312.0 C 7160.0,8303.0 7172.0,8277.0 7186.0,8252.0 C 7208.0,8215.0 7212.0,8196.0 7212.0,8138.0 C 7211.0,8084.0 7216.0,8061.0 7230.0,8041.0 C 7240.0,8027.0 7256.0,7979.0 7265.0,7935.0 C 7280.0,7862.0 7285.0,7851.0 7328.0,7807.0 C 7363.0,7771.0 7378.0,7747.0 7385.0,7713.0 C 7394.0,7671.0 7399.0,7665.0 7428.0,7656.0 C 7451.0,7650.0 7475.0,7629.0 7505.0,7590.0 C 7529.0,7558.0 7572.0,7514.0 7600.0,7490.0 C 7649.0,7449.0 7650.0,7447.0 7650.0,7394.0 C 7650.0,7364.0 7659.0,7318.0 7669.0,7290.0 C 7684.0,7250.0 7687.0,7224.0 7683.0,7162.0 C 7676.0,7067.0 7694.0,7024.0 7769.0,6959.0 C 7798.0,6932.0 7830.0,6891.0 7849.0,6854.0 C 7878.0,6794.0 7881.0,6791.0 7946.0,6769.0 L 8013.0,6745.0 L 8046.0,6675.0 C 8064.0,6637.0 8098.0,6583.0 8120.0,6555.0 C 8143.0,6528.0 8173.0,6484.0 8187.0,6457.0 C 8205.0,6421.0 8220.0,6405.0 8248.0,6394.0 C 8406.0,6330.0 8407.0,6330.0 8419.0,6290.0 C 8428.0,6259.0 8438.0,6249.0 8478.0,6232.0 C 8504.0,6221.0 8548.0,6210.0 8575.0,6206.0 C 8632.0,6199.0 8615.0,6185.0 8746.0,6355.0 L 8815.0,6445.0 L 8815.0,6530.0 C 8815.0,6594.0 8811.0,6622.0 8798.0,6642.0 C 8771.0,6683.0 8785.0,6756.0 8838.0,6859.0 C 8862.0,6906.0 8888.0,6973.0 8895.0,7006.0 C 8903.0,7040.0 8918.0,7086.0 8930.0,7109.0 C 8945.0,7139.0 8950.0,7167.0 8949.0,7208.0 C 8948.0,7239.0 8952.0,7278.0 8959.0,7293.0 C 8965.0,7309.0 8970.0,7340.0 8970.0,7363.0 C 8970.0,7386.0 8977.0,7418.0 8986.0,7435.0 C 9000.0,7462.0 8999.0,7506.0 8984.0,7561.0 C 8981.0,7570.0 8991.0,7591.0 9005.0,7608.0 C 9020.0,7626.0 9034.0,7660.0 9040.0,7692.0 C 9045.0,7721.0 9078.0,7803.0 9115.0,7876.0 L 9180.0,8007.0 L 9161.0,8061.0 C 9151.0,8091.0 9138.0,8152.0 9131.0,8197.0 C 9124.0,8245.0 9103.0,8318.0 9081.0,8373.0 C 9060.0,8424.0 9012.0,8562.0 8974.0,8679.0 C 8902.0,8903.0 8908.0,8892.0 8843.0,8915.0 C 8835.0,8918.0 8835.0,8929.0 8842.0,8960.0 C 8852.0,8997.0 8850.0,9003.0 8830.0,9025.0 C 8811.0,9045.0 8808.0,9056.0 8814.0,9087.0 C 8819.0,9121.0 8805.0,9161.0 8690.0,9430.0 C 8618.0,9598.0 8547.0,9750.0 8531.0,9769.0 L 8503.0,9803.0 L 8459.0,9786.0 C 8436.0,9776.0 8401.0,9755.0 8383.0,9739.0 C 8336.0,9698.0 8249.0,9656.0 8155.0,9630.0 C 8089.0,9611.0 8060.0,9608.0 7985.0,9613.0 C 7936.0,9616.0 7881.0,9624.0 7863.0,9630.0 C 7825.0,9644.0 7777.0,9631.0 7718.0,9593.0 C 7698.0,9579.0 7663.0,9566.0 7641.0,9563.0 C 7603.0,9558.0 7600.0,9559.0 7600.0,9581.0 C 7600.0,9616.0 7573.0,9650.0 7544.0,9650.0 C 7531.0,9650.0 7503.0,9635.0 7481.0,9615.0 C 7448.0,9585.0 7435.0,9580.0 7394.0,9580.0 C 7354.0,9580.0 7341.0,9575.0 7314.0,9549.0 L 7282.0,9518.0 L 7212.0,9530.0 C 7143.0,9543.0 7142.0,9543.0 7094.0,9605.0 C 7052.0,9659.0 6941.0,9750.0 6917.0,9750.0 C 6913.0,9750.0 6894.0,9740.0 6876.0,9728.0 C 6850.0,9711.0 6838.0,9693.0 6825.0,9648.0 C 6807.0,9592.0 6807.0,9591.0 6758.0,9580.0 C 6717.0,9570.0 6706.0,9570.0 6685.0,9584.0 C 6665.0,9598.0 6660.0,9609.0 6660.0,9645.0 L 6660.0,9690.0 L 6552.0,9690.0 L 6444.0,9690.0 L 6397.0,9738.0 C 6357.0,9779.0 6350.0,9791.0 6350.0,9826.0 C 6350.0,9865.0 6352.0,9867.0 6415.0,9901.0 C 6484.0,9937.0 6500.0,9968.0 6461.0,9990.0 C 6423.0,10010.0 6386.0,10001.0 6316.0,9954.0 C 6234.0,9899.0 6250.0,9897.0 6044.0,9995.0 C 5924.0,10052.0 5906.0,10058.0 5807.0,10069.0 C 5681.0,10083.0 5656.0,10079.0 5530.0,10030.0 C 5403.0,9980.0 5276.0,9961.0 5220.0,9984.0 C 5198.0,9993.0 5177.0,10000.0 5174.0,10000.0 C 5171.0,10000.0 5146.0,9953.0 5119.0,9896.0 C 5078.0,9811.0 5064.0,9790.0 5039.0,9779.0 C 5010.0,9768.0 5009.0,9766.0 5025.0,9754.0 C 5042.0,9742.0 5041.0,9740.0 5016.0,9730.0 C 4975.0,9715.0 4970.0,9717.0 4919.0,9760.0 C 4893.0,9782.0 4869.0,9800.0 4866.0,9800.0 C 4863.0,9800.0 4799.0,9752.0 4723.0,9692.0 C 4515.0,9530.0 4428.0,9471.0 4281.0,9391.0 C 4159.0,9325.0 4141.0,9318.0 4076.0,9313.0 C 3986.0,9307.0 3945.0,9323.0 3807.0,9423.0 C 3751.0,9464.0 3675.0,9513.0 3638.0,9533.0 C 3572.0,9570.0 3570.0,9570.0 3408.0,9580.0 C 3259.0,9589.0 3125.0,9602.0 3043.0,9615.0 C 3004.0,9622.0 2980.0,9657.0 2971.0,9719.0 C 2965.0,9764.0 2964.0,9765.0 2930.0,9762.0 C 2911.0,9760.0 2865.0,9743.0 2828.0,9724.0 C 2777.0,9698.0 2748.0,9690.0 2708.0,9690.0 C 2656.0,9690.0 2654.0,9691.0 2583.0,9762.0 C 2529.0,9816.0 2510.0,9841.0 2510.0,9861.0 C 2510.0,9890.0 2495.0,9900.0 2451.0,9900.0 C 2436.0,9900.0 2384.0,9915.0 2336.0,9934.0 C 2245.0,9970.0 2130.0,10000.0 2084.0,10000.0 C 2069.0,10000.0 2043.0,10009.0 2026.0,10019.0 C 2002.0,10034.0 1968.0,10040.0 1875.0,10045.0 C 1701.0,10054.0 1559.0,10095.0 1465.0,10163.0 C 1419.0,10196.0 1376.0,10218.0 1340.0,10227.0 C 1265.0,10244.0 1261.0,10244.0 1211.0,10204.0" fill="pink"/>
</svg>

<?xml version="1.0" standalone="no"?>
<!DOCTYPE svg PUBLIC "-//W3C//DTD SVG 20010904//EN"
 "http://www.w3.org/TR/2001/REC-SVG-20010904/DTD/svg10.dtd">
<svg version="1.0" xmlns="http://www.w3.org/2000/svg"
 width="1024.000000pt" height="1024.000000pt" viewBox="0 0 1024.000000 1024.000000"
 preserveAspectRatio="xMidYMid meet">
<metadata>
Created by potrace 1.10, written by Peter Selinger 2001-2011
</metadata>
<g transform="translate(0.000000,1024.000000) scale(0.100000,-0.100000)"
fill="#000000" stroke="none">
<path d="M1211 10204 c-39 -30 -50 -34 -105 -34 -43 0 -97 -12 -183 -39 l-122
-39 -80 24 c-74 23 -81 28 -106 70 l-26 44 -44 -31 c-24 -17 -46 -41 -49 -54
-9 -36 -94 -114 -132 -121 -19 -3 -37 -10 -40 -16 -3 -5 -6 -78 -6 -163 l-1
-154 52 -120 c28 -67 51 -134 51 -153 -1 -18 -11 -83 -24 -143 -24 -120 -53
-173 -148 -280 -35 -39 -52 -71 -77 -147 l-32 -97 56 -142 c31 -78 54 -147 51
-153 -2 -6 -13 -35 -25 -64 l-21 -52 50 -55 c54 -60 53 -54 25 -148 -12 -40
-10 -49 37 -187 l50 -145 -161 -3690 c-89 -2030 -161 -3699 -161 -3710 0 -20
13 -21 813 -53 1447 -58 2761 -90 4007 -98 l1115 -6 40 71 c78 141 94 161 126
161 45 0 63 -36 55 -113 -4 -34 -10 -72 -13 -84 l-5 -23 618 0 c379 0 685 5
790 12 l171 12 35 -30 c20 -16 87 -75 150 -131 l115 -102 194 -12 195 -12 74
39 74 39 62 205 62 205 263 67 c144 37 266 71 270 75 6 7 189 554 189 566 0 3
60 -13 133 -34 l132 -38 183 182 c171 171 182 184 182 219 0 25 -11 55 -33 90
-19 29 -37 72 -40 96 -3 23 -19 64 -37 91 l-31 49 16 115 c14 105 14 121 0
175 -28 111 -14 212 31 212 8 0 36 -11 62 -25 40 -21 56 -24 100 -18 l53 6
-32 33 c-24 25 -42 34 -66 34 -36 0 -63 21 -88 69 -8 17 -20 31 -25 31 -18 0
-83 65 -136 137 -29 40 -66 79 -81 87 -16 8 -65 52 -111 99 -79 79 -83 85 -71
109 10 23 8 31 -10 57 -12 16 -33 56 -48 88 -14 32 -41 76 -59 99 -22 27 -35
56 -39 90 -4 27 -16 61 -26 76 -11 14 -22 41 -26 60 -10 52 -109 244 -162 311
-26 34 -55 84 -65 110 -10 26 -33 70 -51 97 -18 26 -36 65 -39 87 -11 54 -46
111 -115 182 -51 51 -61 67 -61 96 0 28 -8 40 -44 69 -31 26 -49 52 -65 94
-12 31 -37 82 -56 113 -19 31 -46 89 -61 130 -37 104 -107 229 -175 314 -41
51 -61 86 -69 120 -6 26 -9 50 -6 52 2 2 19 -3 36 -12 l32 -17 -26 35 c-31 41
-34 67 -6 67 31 0 26 46 -10 87 -16 18 -30 40 -30 48 0 8 -15 32 -34 52 -20
23 -36 54 -40 78 -9 49 -69 152 -107 183 -15 12 -33 39 -40 60 -23 72 -58 130
-103 169 -45 40 -81 107 -74 140 2 13 11 17 33 15 l30 -3 -22 18 c-13 10 -26
33 -29 51 -5 22 -16 38 -35 48 -34 17 -36 25 -10 48 14 13 24 14 45 6 15 -5
31 -10 36 -10 9 0 -11 71 -38 133 -17 38 -25 44 -76 60 -64 21 -153 97 -227
195 -24 31 -63 78 -86 104 -24 26 -43 52 -43 57 0 14 -130 182 -161 208 -28
24 -43 68 -54 163 -7 52 -10 57 -61 95 -32 23 -61 54 -70 74 -8 19 -23 40 -33
48 -30 21 -45 78 -31 114 20 48 7 208 -25 300 -21 61 -34 83 -66 108 -98 79
-147 288 -89 383 12 20 16 41 13 67 -5 33 -1 41 27 64 37 31 70 36 70 9 0 -10
14 -31 30 -47 17 -16 30 -35 30 -43 0 -9 12 -35 26 -60 22 -37 26 -56 26 -114
-1 -54 4 -77 18 -97 10 -14 26 -62 35 -106 15 -73 20 -84 63 -128 35 -36 50
-60 57 -94 9 -42 14 -48 43 -57 23 -6 47 -27 77 -66 24 -32 67 -76 95 -100 49
-41 50 -43 50 -96 0 -30 9 -76 19 -104 15 -40 18 -66 14 -128 -7 -95 11 -138
86 -203 29 -27 61 -68 80 -105 29 -60 32 -63 97 -85 l67 -24 33 -70 c18 -38
52 -92 74 -120 23 -27 53 -71 67 -98 18 -36 33 -52 61 -63 158 -64 159 -64
171 -104 9 -31 19 -41 59 -58 26 -11 70 -22 97 -26 57 -7 40 -21 171 149 l69
90 0 85 c0 64 -4 92 -17 112 -27 41 -13 114 40 217 24 47 50 114 57 147 8 34
23 80 35 103 15 30 20 58 19 99 -1 31 3 70 10 85 6 16 11 47 11 70 0 23 7 55
16 72 14 27 13 71 -2 126 -3 9 7 30 21 47 15 18 29 52 35 84 5 29 38 111 75
184 l65 131 -19 54 c-10 30 -23 91 -30 136 -7 48 -28 121 -50 176 -21 51 -69
189 -107 306 -72 224 -66 213 -131 236 -8 3 -8 14 -1 45 10 37 8 43 -12 65
-19 20 -22 31 -16 62 5 34 -9 74 -124 343 -72 168 -143 320 -159 339 l-28 34
-44 -17 c-23 -10 -58 -31 -76 -47 -47 -41 -134 -83 -228 -109 -66 -19 -95 -22
-170 -17 -49 3 -104 11 -122 17 -38 14 -86 1 -145 -37 -20 -14 -55 -27 -77
-30 -38 -5 -41 -4 -41 18 0 35 -27 69 -56 69 -13 0 -41 -15 -63 -35 -33 -30
-46 -35 -87 -35 -40 0 -53 -5 -80 -31 l-32 -31 -70 12 c-69 13 -70 13 -118 75
-42 54 -153 145 -177 145 -4 0 -23 -10 -41 -22 -26 -17 -38 -35 -51 -80 -18
-56 -18 -57 -67 -68 -41 -10 -52 -10 -73 4 -20 14 -25 25 -25 61 l0 45 -108 0
-108 0 -47 48 c-40 41 -47 53 -47 88 0 39 2 41 65 75 69 36 85 67 46 89 -38
20 -75 11 -145 -36 -82 -55 -66 -57 -272 41 -120 57 -138 63 -237 74 -126 14
-151 10 -277 -39 -127 -50 -254 -69 -310 -46 -22 9 -43 16 -46 16 -3 0 -28
-47 -55 -104 -41 -85 -55 -106 -80 -117 -29 -11 -30 -13 -14 -25 17 -12 16
-14 -9 -24 -41 -15 -46 -13 -97 30 -26 22 -50 40 -53 40 -3 0 -67 -48 -143
-108 -208 -162 -295 -221 -442 -301 -122 -66 -140 -73 -205 -78 -90 -6 -131
10 -269 110 -56 41 -132 90 -169 110 -66 37 -68 37 -230 47 -149 9 -283 22
-365 35 -39 7 -63 42 -72 104 -6 45 -7 46 -41 43 -19 -2 -65 -19 -102 -38 -51
-26 -80 -34 -120 -34 -52 0 -54 1 -125 72 -54 54 -73 79 -73 99 0 29 -15 39
-59 39 -15 0 -67 15 -115 34 -91 36 -206 66 -252 66 -15 0 -41 9 -58 19 -24
15 -58 21 -151 26 -174 9 -316 50 -410 118 -46 33 -89 55 -125 64 -75 17 -79
17 -129 -23z"/>
</g>
</svg>
